!! 00000] TT[00
!! NN
!!!OTL: Hei meimao de gu niang
!!!ARE: Xinjiang, Kashi
!! Ethnic Group: Wuzi bieke (Usbeken ?)
!! IV, 530
!!!SCT: C0435
!!!YEM: Copyright 1995, estate of Helmut Schaffrath.
**kern
*ICvox
*Ivox
*M2/4
*k[f#]
*G:
{16d
8g
16g
8g
16cc
16b
=1
8.b
16b
4b}
=2
{16b
8b
16g
16g
16dd
16cc
16b
=3
16b
8a
16cc
4b}
=4
{16b
8b
16g
16g
16dd
16cc
16b
=5
16b
8a
16cc
4b}
=6
{16cc
8cc
16cc
16cc
16dd
8cc
=7
16b
16cc
16b
16a
16b
16a
8g}
=8
{8a
16a
16a
16a
16cc
16b
16a
=9
8g
8dd
8.dd
16b}
=10
{16cc
8cc
16cc
16cc
16dd
8cc
=11
16b
16cc
16b
16a
4g}
=12
{8a
16a
16a
16a
16cc
16b
16a
=13
8.g
16g
4g}
==
!!!AGN: Aiqing gequ
!! Obwohl diese Minderheit haeufiger in der Sowjetunion lebt, hat
!!    dieses Lied eher chinesischen Stil.
!!    Vereinzelt Verzierungen. Vor- und Zwischenspiele weggelassen.
!!!ONB: ESAC (Essen Associative Code) Database: CHINA
!!!AMT: simple duple
!!!AIN: vox
!!!EED: Helmut Schaffrath
!!!EEV: 1.0
*-
